X:1
T:Title
%%score { ( 1 3 ) | ( 2 4 ) }
L:1/8
Q:1/4=100
M:4/4
K:Eb
V:1 treble nm="Grand Piano"
V:3 treble 
V:2 bass 
V:4 bass 
V:1
 EG [GB]>[Ac] [GB]2 G2 | cB G>E F4 | [DF][DF] [DF]>[EG] [FA]2 [GB]2 | %3
w: George~S.~Schuler * * * * *|||
 [Fd][DAc] [DGB]>[B,FA] [B,EG]4 | [G,E][B,EG] [GB]>[Ac] [GB]2 [EG]2 | z4 d4 | %6
w: |||
 cc e>[Ec] [EB]2 [B,EG]2 | [G,E][G,E] [B,EG]>[A,DF] [G,E]4 | [B,GB][Ge] [Ad]>[Ac] [Ad]2 [Ad]2 | %9
w: |||
 [FA][Ac] [GB]>[FA] [GB]4 | [GB][Ge] [Gd]>[Ac] [Fd]2 [DF]2 | [Ge][Ge] d>c [DB]4 | %12
w: |||
 EG [GB]>[Ac] [GB]2 [EG]2 | z4 d4 | cc e>[Ec] [EB]2 [B,EG]2 | %15
w: |||
[M:8/4] [G,E][G,E][B,EG]>[A,DF] [G,E]4 z8 |] %16
w: |
V:2
 [E,G,][E,B,E] [E,E]>[E,E] [E,E]2 [E,B,E]2 | [E,A,E][E,G,E] [E,B,E]>[G,B,] [B,D]4 | %2
 [B,,B,][B,,B,] [B,,B,]>[B,,B,] [B,,B,]2 [B,,B,]2 | [B,,B,]B,, B,,>B,, E,4 | %4
 E,E, [E,E]>[E,E] [E,E]2 [E,B,]2 | z4[K:treble] G2 z2 | %6
 [A,CE][A,CE] [A,,CE]>[A,,A,] [B,,G,]2 B,,2 | C,C, B,,>B,, E,4 | %8
 E,[E,B,] [E,B,]>[E,B,] [F,B,]2 [F,B,]2 | [B,,B,][B,,B,] [B,,B,]>[B,,B,] [E,B,]4 | %10
 [E,B,][E,B,] [E,B,]>[E,B,] [F,B,]2 [F,B,]2 | [F,=A,][F,A,] [F,A,F]>[F,E] [B,,F,]4 | %12
 [E,G,][E,B,E] [E,E]>[E,E] [E,E]2 [E,B,]2 | z4[K:treble] G2 z2 | %14
 [A,CE][A,CE] [A,,CE]>[A,,A,] [B,,G,]2 B,,2 |[M:8/4] C,C,B,,>B,, E,4 z8 |] %16
V:3
 x8 | x8 | x8 | x8 | x8 | [Ge][Ge] [Ge]>[Ec] z2 F2 | x8 | x8 | x8 | x8 | x8 | x8 | x8 | %13
 [Ge][Ge] [Ge]>[Ec] z2 F2 | x8 |[M:8/4] x16 |] %16
V:4
 x8 | x8 | x8 | x8 | x8 | [C,C][C,C] [C,C]>[C,C][K:treble] [G,=B,]4 | x8 | x8 | x8 | x8 | x8 | x8 | %12
 x8 | [C,C][C,C] [C,C]>[C,C][K:treble] [G,=B,]4 | x8 |[M:8/4] x16 |] %16

